X: 30221
M: 2/4
L: 1/16
K: D
V: 1 staves=3
d2dc defg | a3gf2a2 | b2ba bc'd'b | a3gf2A2 |\
d2dc defg | a3gf2A2 | B2gf edce | d2f2"^FINE."d2 :|
d3Ae3A | fefg a2f2 | e3Af3A | gfga bgec |\
d3Ae3A | fa^gb a2aa | b>d'b>d' ^g>bg>b | a2c'2"^D.C."a2 |]
V: 2
V: 3 clef=bass middle=d
z2 |\
d2d2d2d2 | d2d2d2d2 | d2d2d2d2 | d2d2d2z2 |\
d2d2d2d2 | d2d2d2d2 | g2g2a2a2 | d2d2d2 :|
z2 |\
d4 A4 | d2d2d2z2 | A4 d4 | A2A2 A4 |\
d4 A4 | d2d2c2c2 | d2d2e2e2 | A2A2A2 |]


